X: 31661
T: Parnell's March
R: jig
M: 6/8
K: Gmajor
d3|:BGD BGD|(d3 d2)c|BGD BGD|(d3 d2)c|
B3 GBd|edc BAG|A3 ded|ABA ded|
B3 BAG|d2B Bcd|c3 cde|g3 gfe|
dBA GAB|c2A F2G|A2A ABA|1 G3 d3:|2 G3 g2f||
e3 c3|c3 gfe|(d3 d)ed|(B3 B2)c|
d2d GBd|edc BAG|A3 ded|ABA ded|
B2B BAG|d2B Bcd|c3 cde|g3 gfe|
dBA GAB|c2A F2G|A3 ABA|1 G3 g2f:|2 G3||

